dist/images/map.svg

<?xml version="1.0" encoding="UTF-8"?>
<svg width="12px" height="16px" viewBox="0 0 12 16" version="1.1" xmlns="http://www.w3.org/2000/svg" xmlns:xlink="http://www.w3.org/1999/xlink">
    <!-- Generator: Sketch 62 (91390) - https://sketch.com -->
    <title>map</title>
    <desc>Created with Sketch.</desc>
    <g id="Design-V1" stroke="none" stroke-width="1" fill="none" fill-rule="evenodd">
        <g id="Process-&amp;-Stories" transform="translate(-1256.000000, -15.000000)" fill="#53C999" fill-rule="nonzero">
            <path d="M1261.62499,30.8749955 C1261.87889,30.8749955 1262.0742,30.7773397 1262.21092,30.5820275 L1264.17381,27.7695342 C1265.15037,26.3632875 1265.7949,25.4160243 1266.1074,24.9277441 C1266.55662,24.2246208 1266.85935,23.6338017 1267.0156,23.1552874 C1267.17185,22.676773 1267.24997,22.1250162 1267.24997,21.5000179 C1267.24997,20.4843952 1266.99607,19.5468974 1266.48826,18.6875246 C1265.98045,17.8281518 1265.29685,17.1445594 1264.43748,16.6367482 C1263.57811,16.1289371 1262.64061,15.8750313 1261.62499,15.8750313 C1260.60936,15.8750313 1259.67187,16.1289371 1258.81249,16.6367482 C1257.95312,17.1445594 1257.26953,17.8281518 1256.76172,18.6875246 C1256.25391,19.5468974 1256,20.4843952 1256,21.5000179 C1256,22.1250162 1256.07812,22.676773 1256.23437,23.1552874 C1256.39062,23.6338017 1256.69336,24.2246208 1257.14258,24.9277441 C1257.45507,25.4160243 1258.0996,26.3632875 1259.07616,27.7695342 C1259.87694,28.9023441 1260.53124,29.8398419 1261.03905,30.5820275 C1261.17577,30.7773397 1261.37108,30.8749955 1261.62499,30.8749955 Z M1261.62499,23.8437623 C1260.98046,23.8437623 1260.4287,23.6142708 1259.96972,23.1552874 C1259.51073,22.6963039 1259.28124,22.1445476 1259.28124,21.5000179 C1259.28124,20.8554882 1259.51073,20.3037318 1259.96972,19.8447484 C1260.4287,19.385765 1260.98046,19.1562735 1261.62499,19.1562735 C1262.26952,19.1562735 1262.82127,19.385765 1263.28026,19.8447484 C1263.73924,20.3037318 1263.96873,20.8554882 1263.96873,21.5000179 C1263.96873,22.1445476 1263.73924,22.6963039 1263.28026,23.1552874 C1262.82127,23.6142708 1262.26952,23.8437623 1261.62499,23.8437623 Z" id="map"></path>
        </g>
    </g>
</svg>

<svg width="12" height="16" viewBox="0 0 12 16" version="1.1" xmlns="http://www.w3.org/2000/svg"><g id="Design-V1" stroke="none" stroke-width="1" fill="none" fill-rule="evenodd"><g id="Process-&amp;-Stories" transform="translate(-1256 -15)" fill="#53C999" fill-rule="nonzero"><path d="M1261.625 30.875c.254 0 .45-.098.586-.293l1.963-2.812c.976-1.407 1.62-2.354 1.933-2.842.45-.703.752-1.294.909-1.773.156-.478.234-1.03.234-1.655a5.43 5.43 0 00-.762-2.812 5.733 5.733 0 00-2.05-2.051 5.43 5.43 0 00-2.813-.762 5.43 5.43 0 00-2.813.762 5.733 5.733 0 00-2.05 2.05A5.43 5.43 0 001256 21.5c0 .625.078 1.177.234 1.655.157.479.46 1.07.909 1.773.312.488.957 1.435 1.933 2.842.8 1.132 1.455 2.07 1.963 2.812a.672.672 0 00.586.293zm0-7.031c-.645 0-1.196-.23-1.655-.689a2.257 2.257 0 01-.689-1.655c0-.645.23-1.196.689-1.655a2.257 2.257 0 011.655-.689c.645 0 1.196.23 1.655.689.46.459.689 1.01.689 1.655s-.23 1.196-.689 1.655a2.257 2.257 0 01-1.655.689z" id="map"/></g></g></svg>
